public/library/equito-text-light.svg

<svg width="1061" height="248" viewBox="0 0 1061 248" fill="none" xmlns="http://www.w3.org/2000/svg">
<rect width="247.402" height="247.402" rx="84.842" fill="#135DF3"/>
<path d="M96.2044 100.917H78.9276C74.5475 100.917 70.8975 97.2623 70.8975 92.8762V76.0626C70.8975 71.6764 74.5475 67.7776 79.1709 67.7776H96.2044C100.584 67.7776 103.991 71.189 103.991 75.5752V93.1198C103.991 97.506 100.584 100.917 96.2044 100.917Z" fill="white"/>
<path d="M132.46 100.917H115.183C110.803 100.917 107.153 97.2623 107.153 92.8762V76.0626C107.153 71.4327 110.803 67.7776 115.427 67.7776H132.46C136.84 67.7776 140.247 71.189 140.247 75.5752V93.1198C140.247 97.506 136.597 100.917 132.46 100.917Z" fill="white"/>
<path d="M132.46 179.625H115.183C110.803 179.625 107.153 175.97 107.153 171.584V154.77C107.153 150.14 110.803 146.485 115.427 146.485H132.46C136.84 146.485 140.247 149.896 140.247 154.283V171.827C140.247 175.97 136.597 179.625 132.46 179.625Z" fill="white"/>
<path d="M168.477 179.625H151.2C146.82 179.625 143.17 175.97 143.17 171.584V154.77C143.17 150.14 146.82 146.485 151.443 146.485H168.477C172.857 146.485 176.264 149.896 176.264 154.283V171.827C176.507 175.97 172.857 179.625 168.477 179.625Z" fill="white"/>
<path d="M87.4443 179.625C78.4409 179.625 70.8975 172.071 70.8975 163.055C70.8975 154.039 78.4409 146.485 87.4443 146.485C96.4478 146.485 103.991 154.039 103.991 163.055C103.991 172.071 96.4478 179.625 87.4443 179.625Z" fill="white"/>
<path d="M159.959 100.917C150.956 100.917 143.412 93.3635 143.412 84.3475C143.412 75.3315 150.956 67.7776 159.959 67.7776C168.962 67.7776 176.506 75.3315 176.506 84.3475C176.506 93.6072 168.962 100.917 159.959 100.917Z" fill="white"/>
<path d="M115.915 140.393H87.4443C78.4409 140.393 70.8975 132.839 70.8975 123.823C70.8975 114.807 78.4409 107.253 87.4443 107.253H115.915C124.918 107.253 132.462 114.807 132.462 123.823C132.462 132.839 125.161 140.393 115.915 140.393Z" fill="white"/>
<path d="M375.722 205.368C332.087 205.368 301.402 176.644 301.402 127.925C301.402 83.9943 327.02 50.4828 375.44 50.4828C424.142 50.4828 443.567 84.5575 443.567 117.787C443.567 123.42 443.004 129.052 441.596 135.81H341.377C343.911 161.437 357.987 173.828 375.722 173.828C393.739 173.828 404.155 161.155 407.814 149.328L442.441 159.747C434.84 182.839 414.289 205.368 375.722 205.368ZM342.222 111.874H406.97C406.125 94.977 395.146 82.023 375.44 82.023C358.831 82.023 346.163 91.3161 342.222 111.874Z" fill="#135DF3"/>
<path d="M557.459 199.736C557.459 190.161 558.022 181.149 561.4 167.632H557.74C551.265 187.063 538.597 205.368 510.446 205.368C473.849 205.368 447.668 173.546 447.668 127.362C447.668 83.9943 470.753 50.4828 509.601 50.4828C540.568 50.4828 551.547 71.3219 558.022 85.4023H561.681C558.303 79.7701 556.614 71.3219 556.614 62.8736C556.614 59.4943 556.896 57.2414 557.459 54.7069H595.463V246.201H557.459V199.736ZM521.706 171.575C543.946 171.575 556.051 152.425 556.051 127.08C556.051 101.736 543.665 83.4311 522.269 83.4311C500.874 83.4311 487.643 101.172 487.643 127.925C487.643 154.397 500.874 171.575 521.706 171.575Z" fill="#135DF3"/>
<path d="M662.837 205.368C636.656 205.368 613.854 189.879 613.854 145.667V54.7069H651.858V136.655C651.858 163.971 665.089 171.293 679.165 171.293C702.53 171.293 710.976 151.299 710.976 125.391V54.7069H748.98V186.782C748.98 193.259 750.106 196.92 750.669 198.891V201.144H711.257C710.413 198.891 709.568 196.075 709.568 191.287C709.568 184.81 711.257 180.023 714.917 170.73H710.694C702.249 190.443 688.455 205.368 662.837 205.368Z" fill="#135DF3"/>
<path d="M771.202 201.144V54.7069H809.207V201.144H771.202ZM769.513 39.7816V1.20117H810.896V39.7816H769.513Z" fill="#135DF3"/>
<path d="M881.241 205.368C853.653 205.368 837.325 188.19 837.325 159.466V89.0632H814.804V54.7069C843.8 54.7069 850.556 38.6552 850.556 16.6897H889.405C889.405 36.1207 878.707 49.638 867.165 51.3276V54.7069H912.771V89.0632H875.329V151.299C875.329 163.971 880.678 169.04 889.405 169.04C896.161 169.04 902.354 166.224 905.733 163.69L915.867 195.793C908.829 200.017 896.724 205.368 881.241 205.368Z" fill="#135DF3"/>
<path d="M986.364 205.368C941.604 205.368 912.045 174.954 912.045 127.925C912.045 80.615 941.604 50.4828 986.364 50.4828C1030.84 50.4828 1060.4 80.615 1060.4 127.925C1060.4 174.954 1030.84 205.368 986.364 205.368ZM986.364 172.138C1008.04 172.138 1020.43 154.96 1020.43 127.925C1020.43 100.609 1008.04 83.7127 986.364 83.7127C964.406 83.7127 952.02 100.609 952.02 127.925C952.02 154.96 964.406 172.138 986.364 172.138Z" fill="#135DF3"/>
</svg>

<svg xmlns="http://www.w3.org/2000/svg" width="1061" height="248" fill="none" viewBox="0 0 1061 248"><rect width="247.402" height="247.402" fill="#135df3" rx="84.842"/><path fill="#fff" d="M96.204 100.917H78.928c-4.38 0-8.03-3.655-8.03-8.04V76.062c0-4.387 3.65-8.285 8.273-8.285h17.033c4.38 0 7.787 3.411 7.787 7.797V93.12c0 4.386-3.407 7.797-7.787 7.797M132.46 100.917h-17.277c-4.38 0-8.03-3.655-8.03-8.04V76.062c0-4.63 3.65-8.285 8.274-8.285h17.033c4.38 0 7.787 3.411 7.787 7.797V93.12c0 4.386-3.65 7.797-7.787 7.797M132.46 179.625h-17.277c-4.38 0-8.03-3.655-8.03-8.041V154.77c0-4.63 3.65-8.285 8.274-8.285h17.033c4.38 0 7.787 3.411 7.787 7.798v17.544c0 4.143-3.65 7.798-7.787 7.798M168.477 179.625H151.2c-4.38 0-8.03-3.655-8.03-8.041V154.77c0-4.63 3.65-8.285 8.273-8.285h17.034c4.38 0 7.787 3.411 7.787 7.798v17.544c.243 4.143-3.407 7.798-7.787 7.798M87.444 179.625c-9.003 0-16.547-7.554-16.547-16.57s7.544-16.57 16.547-16.57 16.547 7.554 16.547 16.57-7.543 16.57-16.547 16.57M159.959 100.917c-9.003 0-16.547-7.553-16.547-16.57 0-9.015 7.544-16.57 16.547-16.57s16.547 7.555 16.547 16.57c0 9.26-7.544 16.57-16.547 16.57M115.915 140.393h-28.47c-9.004 0-16.547-7.554-16.547-16.57s7.543-16.57 16.546-16.57h28.471c9.003 0 16.547 7.554 16.547 16.57s-7.301 16.57-16.547 16.57"/><path fill="#135df3" d="M375.722 205.368c-43.635 0-74.32-28.724-74.32-77.443 0-43.93 25.618-77.442 74.038-77.442 48.702 0 68.127 34.075 68.127 67.304 0 5.633-.563 11.265-1.971 18.023H341.377c2.534 25.627 16.61 38.018 34.345 38.018 18.017 0 28.433-12.673 32.092-24.5l34.627 10.419c-7.601 23.092-28.152 45.621-66.719 45.621m-33.5-93.494h64.748c-.845-16.897-11.824-29.851-31.53-29.851-16.609 0-29.277 9.293-33.218 29.851M557.459 199.736c0-9.575.563-18.587 3.941-32.104h-3.66c-6.475 19.431-19.143 37.736-47.294 37.736-36.597 0-62.778-31.822-62.778-78.006 0-43.368 23.085-76.88 61.933-76.88 30.967 0 41.946 20.84 48.421 34.92h3.659c-3.378-5.632-5.067-14.08-5.067-22.528 0-3.38.282-5.633.845-8.167h38.004V246.2h-38.004zm-35.753-28.161c22.24 0 34.345-19.15 34.345-44.495s-12.386-43.649-33.782-43.649-34.626 17.741-34.626 44.494c0 26.472 13.231 43.65 34.063 43.65M662.837 205.368c-26.181 0-48.983-15.489-48.983-59.701v-90.96h38.004v81.948c0 27.316 13.231 34.638 27.307 34.638 23.365 0 31.811-19.994 31.811-45.902V54.707h38.004v132.075c0 6.477 1.126 10.138 1.689 12.109v2.253h-39.412c-.844-2.253-1.689-5.069-1.689-9.857 0-6.477 1.689-11.264 5.349-20.557h-4.223c-8.445 19.713-22.239 34.638-47.857 34.638M771.202 201.144V54.707h38.005v146.437zm-1.689-161.362V1.202h41.383v38.58zM881.241 205.368c-27.588 0-43.916-17.178-43.916-45.902V89.063h-22.521V54.707c28.996 0 35.752-16.052 35.752-38.017h38.849c0 19.43-10.698 32.948-22.24 34.638v3.379h45.606v34.356h-37.442V151.3c0 12.672 5.349 17.741 14.076 17.741 6.756 0 12.949-2.816 16.328-5.35l10.134 32.103c-7.038 4.224-19.143 9.575-34.626 9.575"/><path fill="#135df3" d="M986.364 205.368c-44.76 0-74.319-30.414-74.319-77.443 0-47.31 29.559-77.442 74.319-77.442 44.476 0 74.036 30.132 74.036 77.442 0 47.029-29.56 77.443-74.036 77.443m0-33.23c21.676 0 34.066-17.178 34.066-44.213 0-27.316-12.39-44.212-34.066-44.212-21.958 0-34.344 16.896-34.344 44.212 0 27.035 12.386 44.213 34.344 44.213"/></svg>
